; generated by Slic3r 1.3.0 on 2022-01-08 at 12:46:42

; external perimeters extrusion width = 0.55mm (2.33mm^3/s)
; perimeters extrusion width = 0.70mm (6.01mm^3/s)
; infill extrusion width = 0.62mm (7.11mm^3/s)
; solid infill extrusion width = 0.70mm (2.00mm^3/s)
; top infill extrusion width = 0.70mm (1.50mm^3/s)
; support material extrusion width = 0.55mm (4.66mm^3/s)

M190 S80 ; set bed temperature and wait for it to be reached
M104 S250 ; set temperature
G28 ; home all axes
G1 Z5 F5000 ; lift nozzle

; Filament gcode

M109 S250 ; set temperature and wait for it to be reached
G21 ; set units to millimeters
G90 ; use absolute coordinates
M82 ; use absolute distances for extrusion
G92 E0
G1 Z0.350 F7800.000
G1 E-2.00000 F2400.00000
G92 E0
G1 X107.038 Y72.382 F7800.000
G1 E2.00000 F2400.00000
G1 F1800
G1 X108.875 Y70.615 E2.23184
G1 X109.701 Y69.941 E2.32878
G1 X111.688 Y68.570 E2.54829
G1 X112.611 Y68.037 E2.64523
G1 X114.792 Y67.002 E2.86475
G1 X115.789 Y66.624 E2.96168
G1 X118.108 Y65.952 E3.18119
G1 X119.152 Y65.739 E3.27813
G1 X121.549 Y65.448 E3.49766
G1 X122.614 Y65.405 E3.59458
G1 X124.966 Y65.500 E3.80860
G1 X126.085 Y65.631 E3.91101
G1 X128.450 Y66.113 E4.13052
G1 X129.474 Y66.410 E4.22746
G1 X131.731 Y67.266 E4.44697
G1 X132.694 Y67.723 E4.54391
G1 X134.785 Y68.930 E4.76343
G1 X135.662 Y69.536 E4.86036
G1 X137.532 Y71.062 E5.07987
G1 X138.301 Y71.801 E5.17681
G1 X139.902 Y73.608 E5.39632
G1 X140.542 Y74.460 E5.49326
G1 X141.832 Y76.501 E5.71277
G1 X142.328 Y77.445 E5.80971
G1 X143.274 Y79.665 E6.02922
G1 X143.612 Y80.677 E6.12616
G1 X144.189 Y83.021 E6.34567
G1 X144.361 Y84.073 E6.44261
G1 X144.555 Y86.479 E6.66212
G1 X144.555 Y87.545 E6.75906
G1 X144.361 Y89.951 E6.97856
G1 X144.189 Y91.004 E7.07551
G1 X143.612 Y93.348 E7.29501
G1 X143.274 Y94.359 E7.39196
G1 X142.328 Y96.580 E7.61147
G1 X141.832 Y97.524 E7.70841
G1 X140.542 Y99.564 E7.92792
G1 X139.902 Y100.416 E8.02486
G1 X138.028 Y102.513 E8.28053
G1 X102.077 Y138.489 E12.90522
G1 X101.581 Y138.938 E12.96606
G1 X99.711 Y140.464 E13.18556
G1 X98.833 Y141.070 E13.28251
G1 X96.743 Y142.277 E13.50202
G1 X95.780 Y142.734 E13.59895
G1 X93.579 Y143.569 E13.81297
G1 X92.498 Y143.887 E13.91539
G1 X90.133 Y144.369 E14.13489
G1 X89.075 Y144.498 E14.23184
G1 X86.663 Y144.595 E14.45134
G1 X85.597 Y144.552 E14.54829
G1 X83.201 Y144.261 E14.76779
G1 X82.156 Y144.048 E14.86474
G1 X79.838 Y143.376 E15.08424
G1 X78.841 Y142.998 E15.18119
G1 X76.660 Y141.963 E15.40069
G1 X75.737 Y141.430 E15.49764
G1 X73.750 Y140.059 E15.71714
G1 X72.924 Y139.385 E15.81409
G1 X71.183 Y137.713 E16.03359
G1 X70.476 Y136.915 E16.13053
G1 X69.026 Y134.985 E16.35004
G1 X68.456 Y134.084 E16.44699
G1 X67.334 Y131.946 E16.66649
G1 X66.916 Y130.965 E16.76343
G1 X66.152 Y128.675 E16.98295
G1 X65.897 Y127.640 E17.07988
G1 X65.519 Y125.317 E17.29390
G1 X65.424 Y124.195 E17.39632
G1 X65.424 Y121.781 E17.61582
G1 X65.510 Y120.718 E17.71277
G1 X65.887 Y118.395 E17.92678
G1 X66.152 Y117.300 E18.02920
G1 X66.916 Y115.010 E18.24870
G1 X67.334 Y114.030 E18.34565
G1 X68.456 Y111.892 E18.56516
G1 X69.026 Y110.991 E18.66210
G1 X70.476 Y109.061 E18.88160
G1 X71.086 Y108.358 E18.96625
G1 X106.985 Y72.435 E23.58412
G1 E21.58412 F2400.00000
G92 E0
G1 X108.770 Y74.187 F7800.000
G1 E2.00000 F2400.00000
G1 F1800
G1 X110.729 Y72.305 E2.24699
G1 X110.986 Y72.095 E2.27720
G1 X113.246 Y70.535 E2.52696
G1 X113.534 Y70.369 E2.55717
G1 X116.015 Y69.192 E2.80693
G1 X116.326 Y69.074 E2.83714
G1 X118.964 Y68.310 E3.08690
G1 X119.289 Y68.243 E3.11711
G1 X122.016 Y67.912 E3.36688
G1 X122.347 Y67.899 E3.39709
G1 X125.091 Y68.010 E3.64684
G1 X125.421 Y68.050 E3.67705
G1 X128.112 Y68.599 E3.92681
G1 X128.431 Y68.691 E3.95702
G1 X130.999 Y69.665 E4.20678
G1 X131.299 Y69.808 E4.23700
G1 X133.677 Y71.181 E4.48675
G1 X133.951 Y71.369 E4.51697
G1 X136.078 Y73.106 E4.76672
G1 X136.317 Y73.336 E4.79694
G1 X138.138 Y75.392 E5.04669
G1 X138.338 Y75.658 E5.07691
G1 X139.806 Y77.979 E5.32666
G1 X139.960 Y78.273 E5.35688
G1 X141.037 Y80.799 E5.60663
G1 X141.142 Y81.114 E5.63685
G1 X141.799 Y83.781 E5.88660
G1 X141.852 Y84.109 E5.91682
G1 X142.073 Y86.846 E6.16657
G1 X142.073 Y87.178 E6.19679
G1 X141.852 Y89.916 E6.44654
G1 X141.799 Y90.243 E6.47676
G1 X141.142 Y92.910 E6.72651
G1 X141.037 Y93.225 E6.75673
G1 X140.049 Y95.543 E6.98589
G1 X139.806 Y96.046 E7.03666
G1 X138.338 Y98.367 E7.28642
G1 X138.138 Y98.632 E7.31663
G1 X136.317 Y100.688 E7.56639
G1 X136.078 Y100.918 E7.59660
G1 X133.951 Y102.655 E7.84636
G1 X133.677 Y102.844 E7.87657
G1 X131.495 Y104.103 E8.10574
G1 X130.999 Y104.359 E8.15651
G1 X128.431 Y105.333 E8.40627
G1 X128.112 Y105.425 E8.43648
G1 X123.787 Y106.308 E8.83796
G1 X123.555 Y106.119 E8.86515
G1 X123.441 Y106.081 E8.87608
G1 X122.347 Y106.125 E8.97562
G1 X122.015 Y106.112 E9.00583
G1 X119.289 Y105.781 E9.25558
G1 X118.964 Y105.714 E9.28580
G1 X116.326 Y104.950 E9.53555
G1 X116.015 Y104.833 E9.56577
G1 X113.534 Y103.655 E9.81553
G1 X113.247 Y103.489 E9.84574
G1 X110.986 Y101.929 E10.09550
G1 X110.729 Y101.719 E10.12571
G1 X108.749 Y99.817 E10.37547
G1 X108.528 Y99.568 E10.40568
G1 X107.607 Y98.342 E10.54515
G1 X106.878 Y97.373 E10.65544
G1 X106.701 Y97.092 E10.68566
G1 X105.425 Y94.660 E10.93541
G1 X105.294 Y94.355 E10.96563
G1 X104.425 Y91.750 E11.21539
G1 X104.345 Y91.427 E11.24560
G1 X103.941 Y88.940 E11.47476
G1 X103.878 Y88.385 E11.52553
G1 X103.878 Y85.639 E11.77528
G1 X103.905 Y85.308 E11.80550
G1 X104.309 Y82.821 E12.03466
G1 X104.425 Y82.275 E12.08543
G1 X105.294 Y79.670 E12.33519
G1 X105.425 Y79.364 E12.36540
G1 X106.701 Y76.932 E12.61516
G1 X106.878 Y76.652 E12.64537
G1 X108.528 Y74.456 E12.89512
G1 X108.719 Y74.241 E12.92129
G1 X109.203 Y74.637 F7800.000
G1 F1800
G1 X111.144 Y72.773 E13.16599
G1 X111.362 Y72.595 E13.19162
G1 X113.581 Y71.064 E13.43679
G1 X113.825 Y70.923 E13.46243
G1 X116.261 Y69.767 E13.70761
G1 X116.524 Y69.667 E13.73324
G1 X119.113 Y68.917 E13.97841
G1 X119.390 Y68.861 E14.00404
G1 X122.066 Y68.536 E14.24923
G1 X122.347 Y68.525 E14.27486
G1 X125.041 Y68.633 E14.52003
G1 X125.321 Y68.667 E14.54566
G1 X127.962 Y69.206 E14.79083
G1 X128.233 Y69.285 E14.81647
G1 X130.754 Y70.241 E15.06165
G1 X131.008 Y70.361 E15.08728
G1 X133.343 Y71.709 E15.33246
G1 X133.575 Y71.870 E15.35809
G1 X135.507 Y73.447 E15.58495
G1 X135.866 Y73.770 E15.62886
G1 X137.654 Y75.788 E15.87403
G1 X137.823 Y76.013 E15.89967
G1 X139.264 Y78.291 E16.14484
G1 X139.395 Y78.541 E16.17047
G1 X140.452 Y81.021 E16.41565
G1 X140.541 Y81.288 E16.44128
G1 X141.186 Y83.906 E16.68646
G1 X141.231 Y84.184 E16.71209
G1 X141.448 Y86.871 E16.95726
G1 X141.448 Y87.153 E16.98290
G1 X141.231 Y89.840 E17.22807
G1 X141.186 Y90.118 E17.25371
G1 X140.541 Y92.736 E17.49888
G1 X140.452 Y93.003 E17.52451
G1 X139.474 Y95.298 E17.75139
G1 X139.264 Y95.733 E17.79529
G1 X137.823 Y98.011 E18.04047
G1 X137.654 Y98.237 E18.06610
G1 X135.866 Y100.255 E18.31128
G1 X135.663 Y100.450 E18.33691
G1 X133.575 Y102.155 E18.58208
G1 X133.343 Y102.315 E18.60771
G1 X131.182 Y103.562 E18.83459
G1 X130.754 Y103.784 E18.87849
G1 X128.233 Y104.740 E19.12367
G1 X127.962 Y104.818 E19.14930
G1 X123.952 Y105.637 E19.52152
G1 X123.767 Y105.485 E19.54329
G1 X123.653 Y105.447 E19.55423
G1 X122.347 Y105.500 E19.67303
G1 X122.066 Y105.488 E19.69866
G1 X119.390 Y105.164 E19.94383
G1 X119.113 Y105.107 E19.96947
G1 X116.524 Y104.357 E20.21464
G1 X116.260 Y104.257 E20.24028
G1 X113.825 Y103.101 E20.48546
G1 X113.581 Y102.961 E20.51109
G1 X111.362 Y101.429 E20.75626
G1 X111.144 Y101.251 E20.78189
G1 X109.200 Y99.383 E21.02707
G1 X109.013 Y99.172 E21.05270
G1 X108.018 Y97.849 E21.20328
G1 X107.393 Y97.017 E21.29788
G1 X107.243 Y96.779 E21.32351
G1 X105.990 Y94.392 E21.56869
G1 X105.879 Y94.133 E21.59432
G1 X105.026 Y91.576 E21.83950
G1 X104.958 Y91.302 E21.86513
G1 X104.558 Y88.840 E22.09200
G1 X104.503 Y88.360 E22.13590
G1 X104.503 Y85.664 E22.38108
G1 X104.526 Y85.383 E22.40671
G1 X104.926 Y82.921 E22.63358
G1 X105.026 Y82.449 E22.67748
G1 X105.879 Y79.892 E22.92266
G1 X105.990 Y79.632 E22.94829
G1 X107.243 Y77.245 E23.19347
G1 X107.393 Y77.007 E23.21910
G1 X109.013 Y74.852 E23.46427
G1 X109.153 Y74.693 E23.48357
G1 X109.651 Y75.074 F7800.000
G1 F1800
G1 X111.559 Y73.242 E23.72416
G1 X111.738 Y73.095 E23.74521
G1 X113.915 Y71.592 E23.98581
G1 X114.116 Y71.477 E24.00686
G1 X116.347 Y70.418 E24.23144
G1 X116.722 Y70.261 E24.26848
G1 X119.263 Y69.525 E24.50907
G1 X119.490 Y69.478 E24.53012
G1 X122.116 Y69.159 E24.77072
G1 X122.347 Y69.150 E24.79177
G1 X124.991 Y69.257 E25.03236
G1 X125.220 Y69.284 E25.05341
G1 X127.812 Y69.814 E25.29400
G1 X128.035 Y69.878 E25.31506
G1 X130.508 Y70.816 E25.55565
G1 X130.718 Y70.915 E25.57670
G1 X133.009 Y72.238 E25.81730
G1 X133.199 Y72.370 E25.83835
G1 X135.248 Y74.043 E26.07894
G1 X135.415 Y74.203 E26.09999
G1 X137.169 Y76.183 E26.34059
G1 X137.309 Y76.368 E26.36164
G1 X138.722 Y78.604 E26.60223
G1 X138.830 Y78.809 E26.62329
G1 X139.867 Y81.243 E26.86388
G1 X139.940 Y81.462 E26.88493
G1 X140.573 Y84.031 E27.12553
G1 X140.610 Y84.260 E27.14658
G1 X140.823 Y86.896 E27.38717
G1 X140.823 Y87.128 E27.40822
G1 X140.610 Y89.765 E27.64881
G1 X140.573 Y89.993 E27.66987
G1 X139.940 Y92.562 E27.91046
G1 X139.867 Y92.781 E27.93151
G1 X138.830 Y95.215 E28.17211
G1 X138.722 Y95.420 E28.19316
G1 X137.308 Y97.656 E28.43376
G1 X137.169 Y97.841 E28.45481
G1 X135.415 Y99.821 E28.69540
G1 X135.248 Y99.982 E28.71645
G1 X133.199 Y101.655 E28.95705
G1 X133.009 Y101.786 E28.97810
G1 X130.870 Y103.021 E29.20268
G1 X130.508 Y103.208 E29.23971
G1 X128.035 Y104.146 E29.48031
G1 X127.812 Y104.211 E29.50136
G1 X124.118 Y104.965 E29.84432
G1 X123.978 Y104.851 E29.86068
G1 X123.864 Y104.813 E29.87162
G1 X122.347 Y104.874 E30.00968
G1 X122.116 Y104.865 E30.03073
G1 X119.490 Y104.546 E30.27132
G1 X119.263 Y104.500 E30.29238
G1 X116.722 Y103.764 E30.53297
G1 X116.506 Y103.682 E30.55402
G1 X114.116 Y102.548 E30.79462
G1 X113.915 Y102.432 E30.81567
G1 X111.738 Y100.929 E31.05626
G1 X111.559 Y100.783 E31.07732
G1 X109.651 Y98.950 E31.31791
G1 X109.497 Y98.777 E31.33896
G1 X108.429 Y97.356 E31.50065
G1 X107.908 Y96.662 E31.57956
G1 X107.784 Y96.466 E31.60061
G1 X106.555 Y94.124 E31.84120
G1 X106.464 Y93.911 E31.86225
G1 X105.626 Y91.402 E32.10285
G1 X105.571 Y91.177 E32.12390
G1 X105.175 Y88.739 E32.34848
G1 X105.128 Y88.335 E32.38552
G1 X105.128 Y85.689 E32.62611
G1 X105.147 Y85.459 E32.64716
G1 X105.543 Y83.021 E32.87174
G1 X105.626 Y82.623 E32.90878
G1 X106.464 Y80.113 E33.14937
G1 X106.555 Y79.900 E33.17042
G1 X107.784 Y77.558 E33.41102
G1 X107.908 Y77.362 E33.43207
G1 X109.601 Y75.130 E33.68685
G1 X110.102 Y75.508 F7800.000
G1 F1800
G1 X111.973 Y73.710 E33.92286
G1 X112.114 Y73.595 E33.93933
G1 X114.249 Y72.121 E34.17535
G1 X114.406 Y72.031 E34.19182
G1 X116.615 Y70.983 E34.41411
G1 X116.920 Y70.854 E34.44428
G1 X119.413 Y70.132 E34.68029
G1 X119.590 Y70.096 E34.69676
G1 X122.166 Y69.783 E34.93278
G1 X122.347 Y69.776 E34.94924
G1 X124.940 Y69.880 E35.18526
G1 X125.120 Y69.902 E35.20173
G1 X127.663 Y70.421 E35.43774
G1 X127.837 Y70.471 E35.45421
G1 X130.263 Y71.392 E35.69022
G1 X130.427 Y71.469 E35.70669
G1 X132.544 Y72.691 E35.92898
G1 X132.823 Y72.870 E35.95915
G1 X134.833 Y74.511 E36.19516
G1 X134.964 Y74.636 E36.21163
G1 X136.685 Y76.579 E36.44765
G1 X136.794 Y76.724 E36.46412
G1 X138.181 Y78.917 E36.70013
G1 X138.265 Y79.077 E36.71660
G1 X139.282 Y81.465 E36.95261
G1 X139.339 Y81.636 E36.96908
G1 X139.960 Y84.156 E37.20510
G1 X139.990 Y84.335 E37.22157
G1 X140.198 Y86.922 E37.45758
G1 X140.198 Y87.103 E37.47405
G1 X139.990 Y89.689 E37.71006
G1 X139.960 Y89.868 E37.72653
G1 X139.339 Y92.388 E37.96254
G1 X139.282 Y92.560 E37.97902
G1 X138.265 Y94.947 E38.21503
G1 X138.181 Y95.107 E38.23150
G1 X136.874 Y97.173 E38.45379
G1 X136.685 Y97.446 E38.48396
G1 X134.964 Y99.388 E38.71998
G1 X134.833 Y99.513 E38.73644
G1 X132.940 Y101.059 E38.95873
G1 X132.674 Y101.258 E38.98890
G1 X130.427 Y102.555 E39.22492
G1 X130.263 Y102.633 E39.24139
G1 X127.837 Y103.553 E39.47740
G1 X127.663 Y103.603 E39.49387
G1 X124.283 Y104.293 E39.80757
G1 X124.190 Y104.217 E39.81851
G1 X124.076 Y104.179 E39.82945
G1 X122.347 Y104.249 E39.98678
G1 X122.166 Y104.242 E40.00325
G1 X119.590 Y103.929 E40.23926
G1 X119.413 Y103.892 E40.25573
G1 X116.920 Y103.170 E40.49174
G1 X116.751 Y103.106 E40.50822
G1 X114.406 Y101.994 E40.74423
G1 X114.249 Y101.903 E40.76070
G1 X112.114 Y100.429 E40.99671
G1 X111.973 Y100.314 E41.01318
G1 X110.102 Y98.517 E41.24920
G1 X109.982 Y98.381 E41.26567
G1 X108.840 Y96.862 E41.43847
G1 X108.326 Y96.154 E41.51811
G1 X107.120 Y93.856 E41.75412
G1 X107.049 Y93.689 E41.77059
G1 X106.227 Y91.228 E42.00661
G1 X106.184 Y91.052 E42.02308
G1 X105.792 Y88.639 E42.24536
G1 X105.753 Y88.310 E42.27553
G1 X105.753 Y85.715 E42.51155
G1 X105.768 Y85.534 E42.52802
G1 X106.160 Y83.122 E42.75031
G1 X106.227 Y82.797 E42.78048
G1 X107.049 Y80.335 E43.01649
G1 X107.120 Y80.169 E43.03296
G1 X108.326 Y77.871 E43.26897
G1 X108.423 Y77.718 E43.28544
G1 X110.052 Y75.564 E43.53107
G1 X110.553 Y75.941 F7800.000
G1 F1800
G1 X112.489 Y74.095 E43.77436
G1 X114.584 Y72.650 E44.00579
G1 X116.882 Y71.547 E44.23764
G1 X117.118 Y71.447 E44.26095
G1 X119.562 Y70.739 E44.49238
G1 X122.217 Y70.406 E44.73567
G1 X124.890 Y70.503 E44.97895
G1 X127.639 Y71.065 E45.23408
G1 X130.018 Y71.967 E45.46551
G1 X132.231 Y73.233 E45.69736
G1 X132.448 Y73.370 E45.72066
G1 X134.419 Y74.979 E45.95210
G1 X136.200 Y76.974 E46.19538
G1 X137.700 Y79.345 E46.45051
G1 X138.739 Y81.811 E46.69380
G1 X139.348 Y84.281 E46.92523
G1 X139.573 Y86.947 E47.16851
G1 X139.348 Y89.743 E47.42364
G1 X138.697 Y92.338 E47.66693
G1 X137.639 Y94.795 E47.91021
G1 X136.279 Y96.945 E48.14165
G1 X134.513 Y98.955 E48.38493
G1 X132.448 Y100.655 E48.62821
G1 X130.018 Y102.057 E48.88335
G1 X127.513 Y102.996 E49.12663
G1 X124.449 Y103.622 E49.41107
G1 X124.402 Y103.583 E49.41660
G1 X124.288 Y103.545 E49.42753
G1 X122.217 Y103.618 E49.61599
G1 X119.691 Y103.311 E49.84742
G1 X117.118 Y102.577 E50.09070
G1 X114.697 Y101.440 E50.33399
G1 X112.388 Y99.846 E50.58912
G1 X110.553 Y98.084 E50.82055
G1 X109.251 Y96.369 E51.01632
G1 X108.868 Y95.841 E51.07569
G1 X107.685 Y93.588 E51.30713
G1 X106.828 Y91.054 E51.55041
G1 X106.378 Y88.285 E51.80554
G1 X106.378 Y85.740 E52.03697
G1 X106.777 Y83.222 E52.26882
G1 X106.828 Y82.971 E52.29213
G1 X107.634 Y80.557 E52.52356
G1 X108.868 Y78.184 E52.76684
G1 X110.503 Y75.997 E53.01518
G1 X111.004 Y76.374 F7800.000
G1 F1800
G1 X112.865 Y74.595 E53.24931
G1 X114.918 Y73.178 E53.47616
G1 X117.150 Y72.112 E53.70116
G1 X117.316 Y72.040 E53.71759
G1 X119.712 Y71.347 E53.94444
G1 X122.267 Y71.030 E54.17858
G1 X124.840 Y71.127 E54.41272
G1 X127.441 Y71.658 E54.65413
G1 X129.773 Y72.542 E54.88099
G1 X131.919 Y73.774 E55.10598
G1 X132.072 Y73.870 E55.12242
G1 X134.004 Y75.447 E55.34927
G1 X135.764 Y77.434 E55.59068
G1 X137.135 Y79.614 E55.82482
G1 X138.138 Y81.985 E56.05895
G1 X138.735 Y84.406 E56.28581
G1 X138.948 Y86.972 E56.51994
G1 X138.735 Y89.618 E56.76136
G1 X138.112 Y92.116 E56.99549
G1 X137.097 Y94.482 E57.22963
G1 X135.764 Y96.590 E57.45648
G1 X134.062 Y98.521 E57.69062
G1 X132.072 Y100.155 E57.92475
G1 X129.773 Y101.482 E58.16617
G1 X127.363 Y102.389 E58.40031
G1 X124.614 Y102.950 E58.65548
G1 X124.499 Y102.911 E58.66653
G1 X122.267 Y102.995 E58.86968
G1 X119.791 Y102.694 E59.09652
G1 X117.316 Y101.984 E59.33066
G1 X114.988 Y100.886 E59.56480
G1 X112.803 Y99.378 E59.80622
G1 X111.004 Y97.650 E60.03307
G1 X109.663 Y95.876 E60.23538
G1 X109.409 Y95.528 E60.27449
G1 X108.250 Y93.319 E60.50134
G1 X107.429 Y90.879 E60.73548
G1 X107.003 Y88.259 E60.97690
G1 X107.003 Y85.765 E61.20375
G1 X107.393 Y83.322 E61.42874
G1 X107.429 Y83.145 E61.44518
G1 X108.219 Y80.779 E61.67203
G1 X109.409 Y78.496 E61.90616
G1 X110.954 Y76.430 E62.14078
G1 X111.455 Y76.807 F7800.000
G1 F1800
G1 X113.241 Y75.095 E62.36577
G1 X115.252 Y73.707 E62.58804
G1 X117.418 Y72.677 E62.80617
G1 X117.514 Y72.634 E62.81575
G1 X119.862 Y71.954 E63.03801
G1 X122.317 Y71.653 E63.26300
G1 X124.789 Y71.750 E63.48799
G1 X127.243 Y72.251 E63.71569
G1 X129.528 Y73.118 E63.93796
